app/assets/images/payment_icons/yoco_instant_eft.svg

<svg width="38" height="24" viewBox="0 0 38 24" fill="none" xmlns="http://www.w3.org/2000/svg">
<rect width="38" height="24" fill="white"/>
<path d="M11.0388 9V8.27632H11.9388V6.38363H11.0388V5.69242H13.5763V6.38363H12.6764V8.27632H13.5763V9H11.0388ZM14.9197 6.68516V9H14.1682V5.69242H14.9475L16.9562 7.93768L16.984 7.97943V5.69242H17.7309V9H16.984L14.9522 6.73155L14.9197 6.68516ZM20.1558 9.09742C19.7198 9.09742 19.3672 9.05567 19.0889 8.96289C18.5368 8.78197 18.2585 8.41549 18.1425 7.82634H18.9868C19.0982 8.2856 19.511 8.42013 20.1744 8.42013C20.7821 8.42013 21.0558 8.30416 21.0558 8.03046C21.0558 7.92376 21.0187 7.8449 20.9491 7.80315C20.8006 7.70573 20.462 7.68254 19.7847 7.64542C19.4507 7.62687 19.1724 7.58512 18.9497 7.51553C18.509 7.38564 18.3003 7.12122 18.3003 6.65733C18.3003 6.01715 18.843 5.60892 19.9239 5.60892C21.0743 5.60892 21.6867 5.92901 21.8398 6.76402H21.0094C20.9166 6.34188 20.5362 6.25838 19.91 6.25838C19.2883 6.25838 19.0889 6.39754 19.0889 6.63413C19.0889 6.75011 19.1213 6.82897 19.2698 6.88464C19.4136 6.9403 19.6827 6.97741 20.1466 6.99597C20.5455 7.01453 20.8656 7.05628 21.1161 7.12586C21.6217 7.26039 21.8398 7.52017 21.8398 7.97479C21.8398 8.68455 21.3202 9.09742 20.1558 9.09742ZM24.0584 6.35579V9H23.2605V6.35579H22.073V5.69242H25.3017V6.35579H24.0584ZM27.6669 8.28096H25.8345L25.4913 9H24.6516L26.3263 5.69242H27.1474L28.8499 9H28.0195L27.6669 8.28096ZM26.7345 6.39291L26.1361 7.65006H27.3515L26.7345 6.39291ZM29.9736 6.68516V9H29.2221V5.69242H30.0015L32.0101 7.93768L32.038 7.97943V5.69242H32.7849V9H32.038L30.0061 6.73155L29.9736 6.68516ZM35.2979 6.35579V9H34.5V6.35579H33.3125V5.69242H36.5412V6.35579H35.2979Z" fill="black"/>
<path d="M18.9007 17.8264H10.8965V9.69683H18.6613V11.3045H12.7322V12.9464H17.7491V14.5541H12.7322V16.1617H18.9007V17.8264ZM22.1199 14.9075V17.8264H20.2386V9.69683H27.7752V11.3843H22.1199V13.2086H27.6156V14.9075H22.1199ZM33.6466 11.3273V17.8264H31.6855V11.3273H28.7666V9.69683H36.7023V11.3273H33.6466Z" fill="black"/>
<path d="M3.49585 13.8179H9.15256" stroke="black" stroke-width="1.33099" stroke-linecap="round"/>
<path d="M6.49048 10.657H9.15246" stroke="black" stroke-width="1.33099" stroke-linecap="round"/>
<path d="M1 17.1453H8.98595" stroke="black" stroke-width="1.33099" stroke-linecap="round"/>
</svg>

<svg xmlns="http://www.w3.org/2000/svg" width="38" height="24" fill="none"><path fill="#fff" d="M0 0h38v24H0z"/><path fill="#000" d="M11.039 9v-.724h.9V6.384h-.9v-.692h2.537v.692h-.9v1.892h.9V9H11.04Zm3.88-2.315V9h-.75V5.692h.778l2.01 2.246.027.041V5.692h.747V9h-.747l-2.032-2.268-.032-.047Zm5.237 2.412c-.436 0-.789-.041-1.067-.134-.552-.181-.83-.548-.947-1.137h.845c.111.46.524.594 1.187.594.608 0 .882-.116.882-.39 0-.106-.037-.185-.107-.227-.148-.097-.487-.12-1.164-.158a3.508 3.508 0 0 1-.835-.13c-.441-.13-.65-.394-.65-.858 0-.64.543-1.048 1.624-1.048 1.15 0 1.763.32 1.916 1.155h-.83c-.093-.422-.474-.506-1.1-.506-.622 0-.821.14-.821.376 0 .116.032.195.18.25.145.056.414.093.878.112a4.5 4.5 0 0 1 .97.13c.505.134.723.394.723.849 0 .71-.52 1.122-1.684 1.122Zm3.902-2.741V9h-.797V6.356h-1.188v-.664h3.229v.664h-1.244Zm3.609 1.925h-1.833L25.491 9h-.84l1.675-3.308h.821L28.85 9h-.83l-.353-.719Zm-.933-1.888-.598 1.257h1.216l-.617-1.257Zm3.24.292V9h-.752V5.692h.78l2.008 2.246.028.041V5.692h.747V9h-.747l-2.032-2.268-.032-.047Zm5.324-.33V9H34.5V6.356h-1.188v-.664h3.23v.664h-1.244ZM18.9 17.826h-8.003v-8.13h7.764v1.609h-5.929v1.641h5.017v1.608h-5.017v1.608h6.169v1.664Zm3.22-2.918v2.918h-1.881v-8.13h7.536v1.688H22.12v1.825h5.496v1.699H22.12Zm11.527-3.58v6.498h-1.961v-6.499h-2.92v-1.63h7.936v1.63h-3.055Z"/><path stroke="#000" stroke-linecap="round" stroke-width="1.331" d="M3.496 13.818h5.657M6.49 10.657h2.662M1 17.145h7.986"/></svg>
